X:16
T:Late Bloomer
R:reel
C: 1976, 2010 L.E. McCullough  
M:4/4
L:1/8
K:Ador
|:~c3A ~B3G|AGEF GABd|~e3d BedB|A~G3 ~A3B|
c~e3 d~B3|AGEF G~B3|e~g3 edBe|dBAG ~A3B:|
|:c~e3 dBAG|~A3G AGED|c~e3 gedB|AGBG ~A3B|
c~e3 gage|d~B3 GABd|e~g3 edBe|dBAG ~A3B:|
<end>
<start>
